styles/2/Numix/32/places/yellow-folder-dropbox.svg

<?xml version="1.0" encoding="UTF-8" standalone="no"?>
<svg
   xmlns:dc="http://purl.org/dc/elements/1.1/"
   xmlns:cc="http://creativecommons.org/ns#"
   xmlns:rdf="http://www.w3.org/1999/02/22-rdf-syntax-ns#"
   xmlns:svg="http://www.w3.org/2000/svg"
   xmlns="http://www.w3.org/2000/svg"
   xmlns:sodipodi="http://sodipodi.sourceforge.net/DTD/sodipodi-0.dtd"
   xmlns:inkscape="http://www.inkscape.org/namespaces/inkscape"
   width="32"
   height="32"
   viewBox="0 0 32 32"
   id="svg3021"
   version="1.1"
   inkscape:version="0.91 r"
   sodipodi:docname="yellow-folder-dropbox.svg">
  <metadata
     id="metadata3035">
    <rdf:RDF>
      <cc:Work
         rdf:about="">
        <dc:format>image/svg+xml</dc:format>
        <dc:type
           rdf:resource="http://purl.org/dc/dcmitype/StillImage" />
      </cc:Work>
    </rdf:RDF>
  </metadata>
  <defs
     id="defs3033" />
  <sodipodi:namedview
     pagecolor="#ffffff"
     bordercolor="#666666"
     borderopacity="1"
     objecttolerance="10"
     gridtolerance="10"
     guidetolerance="10"
     inkscape:pageopacity="0"
     inkscape:pageshadow="2"
     inkscape:window-width="672"
     inkscape:window-height="480"
     id="namedview3031"
     showgrid="false"
     inkscape:zoom="7.375"
     inkscape:cx="16"
     inkscape:cy="16"
     inkscape:window-x="0"
     inkscape:window-y="0"
     inkscape:window-maximized="0"
     inkscape:current-layer="svg3021" />
  <path
     style="font-size:medium;font-style:normal;font-variant:normal;font-weight:normal;font-stretch:normal;text-indent:0;text-align:start;text-decoration:none;line-height:normal;letter-spacing:normal;word-spacing:normal;text-transform:none;direction:ltr;block-progression:tb;writing-mode:lr-tb;text-anchor:start;baseline-shift:baseline;color:#000000;fill:#ffca28;fill-opacity:1;fill-rule:nonzero;stroke:none;stroke-width:1;marker:none;visibility:visible;display:inline;overflow:visible;enable-background:accumulate;font-family:Sans;-inkscape-font-specification:Sans"
     d="M 4,4 C 3.5084,4 3,4.4731187 3,5 L 3,6 C 2.333334,6 2.166667,6 1.5,6 0.520838,6 0,6.4940342 0,7.5 l 0,19 C 0,27.531461 0.523069,28 1.5,28 l 28.84375,0 C 31.21572,28 32,27.376781 32,26.5 l 0,-17 C 32,8.5586771 31.574893,8 30.5,8 L 28,8 28,5 C 28,4.4731187 27.4916,4 27,4 z"
     id="path3004"
     inkscape:connector-curvature="0"
     sodipodi:nodetypes="ssccssssscccsss" />
  <path
     style="font-size:medium;font-style:normal;font-variant:normal;font-weight:normal;font-stretch:normal;text-indent:0;text-align:start;text-decoration:none;line-height:normal;letter-spacing:normal;word-spacing:normal;text-transform:none;direction:ltr;block-progression:tb;writing-mode:lr-tb;text-anchor:start;baseline-shift:baseline;color:#000000;fill:#000000;fill-opacity:0.32156863;fill-rule:nonzero;stroke:none;stroke-width:1;marker:none;visibility:visible;display:inline;overflow:visible;enable-background:accumulate;font-family:Sans;-inkscape-font-specification:Sans"
     d="M 4,4 C 3.5084,4 3,4.4731186 3,5 L 3,6 C 2.313197,6 2.116465,6 1.5,6 0.520838,6 0,6.4829856 0,7.5 l 0,19 C 0,27.503839 0.500972,28 1.5,28 l 28.84375,0 C 31.21572,28 32,27.376781 32,26.5 L 32,9.551777 C 32,8.537794 31.580916,8 30.5,8 L 28,8 28,5 C 28,4.4731186 27.4916,4 27,4 z M 19,7 19,9 31,9 31,27 1,27 1,7 z"
     id="path3784"
     inkscape:connector-curvature="0"
     sodipodi:nodetypes="ssccssssscccsssccccccc" />
  <path
     id="path3871"
     d="M 12.500001,12 9,14.7575 12.500001,17.1212 9,20.2727 15.999999,25 l 7.000002,-4.7273 -3.5,-3.1515 3.5,-2.3637 -3.5,-2.7575 -3.500002,2.7575 L 12.500001,12 z"
     style="line-height:normal;opacity:1;color:#000000;fill:#000000;fill-opacity:0.32156864000000002"
     inkscape:connector-curvature="0" />
</svg>

<svg xmlns="http://www.w3.org/2000/svg" viewBox="0 0 32 32">
 <path d="m 4 4 c -0.492 0 -1 0.473 -1 1 l 0 1 c -0.667 0 -0.833 0 -1.5 0 -0.979 0 -1.5 0.494 -1.5 1.5 l 0 19 c 0 1.031 0.523 1.5 1.5 1.5 l 28.844 0 c 0.872 0 1.656 -0.623 1.656 -1.5 l 0 -17 c 0 -0.941 -0.425 -1.5 -1.5 -1.5 l -2.5 0 0 -3 c 0 -0.527 -0.508 -1 -1 -1 z" style="visibility:visible;fill:#ffca28;fill-opacity:1;stroke:none;display:inline;color:#000;fill-rule:nonzero"/>
 <path d="m 4 4 c -0.492 0 -1 0.473 -1 1 l 0 1 c -0.687 0 -0.884 0 -1.5 0 -0.979 0 -1.5 0.483 -1.5 1.5 l 0 19 c 0 1 0.501 1.5 1.5 1.5 l 28.844 0 c 0.872 0 1.656 -0.623 1.656 -1.5 l 0 -16.948 c 0 -1.014 -0.419 -1.552 -1.5 -1.552 l -2.5 0 0 -3 c 0 -0.527 -0.508 -1 -1 -1 z m 15 3 0 2 12 0 0 18 -30 0 0 -20 z" style="visibility:visible;fill:#000;fill-opacity:0.322;stroke:none;display:inline;color:#000;fill-rule:nonzero"/>
 <path d="m 12.5 12 -3.5 2.758 3.5 2.364 -3.5 3.151 7 4.727 l 7 -4.727 -3.5 -3.151 3.5 -2.364 -3.5 -2.758 -3.5 2.758 l -3.5 -2.758 z" style="fill:#000;opacity:1;fill-opacity:0.322;color:#000"/>
</svg>
